_inc/systems/logos/cps2.svg

<?xml version="1.0" encoding="utf-8"?>
<svg viewBox="0 0 1758.6 493" version="1.1" id="svg45" xmlns="http://www.w3.org/2000/svg">
  <path class="st3" d="M 310.901 79.154 L 227.761 167.333 L 172.884 129.542 C 172.884 129.542 190.932 112.227 174.442 99.63 C 161.57 89.827 125.566 110.67 127.077 151.621 C 128.909 198.849 157.997 225.6 190.108 225.6 C 219.883 225.6 227.716 201.46 227.716 201.46 L 294.548 201.46 L 294.548 257.115 L 388.545 8.245 L 495.962 8.245 L 582.217 231.876 C 582.217 231.876 588.493 243.694 594.769 246.855 C 594.769 246.855 595.135 100.134 595.135 96.011 C 595.135 91.889 594.585 87.354 592.02 84.422 C 587.806 79.521 580.66 77.551 580.66 77.551 L 580.66 8.245 C 580.66 8.245 680.199 8.245 731.228 8.245 C 809.284 8.245 829.347 29.545 851.976 70.451 C 883.262 28.171 926.275 0.366 987.657 0.366 C 1050.825 0.366 1095.487 23.728 1121.002 62.572 C 1156.64 19.834 1213.99 0 1266.485 0 C 1330.982 0 1384.851 31.332 1412.748 79.933 L 1412.748 8.245 L 1557.819 8.245 L 1573.119 47.227 L 1584.479 8.245 L 1734.268 8.245 L 1734.268 75.948 C 1723.687 81.078 1719.427 86.3 1721.305 98.393 L 1742.239 232.242 C 1743.109 236.594 1744.621 241.129 1748.377 244.473 C 1752.729 248.366 1758.592 247.633 1758.592 247.633 L 1758.592 324.818 L 1608.024 324.818 L 1608.024 266.506 L 1521.723 266.506 L 1521.723 324.956 L 1380.179 324.956 L 1380.179 286.982 C 1380.179 286.982 1328.462 332.651 1261.767 332.651 C 1176.474 332.651 1119.444 269.667 1119.444 269.667 L 1119.444 324.773 C 1119.444 324.773 1113.169 324.773 1019.035 324.773 C 929.711 324.773 853.03 275.667 831.592 186.206 C 821.423 195.917 776.669 228.028 722.983 240.121 C 718.814 241.037 716.707 242.64 716.707 247.221 C 716.707 255.512 734.389 258.444 734.389 258.444 L 734.389 324.773 C 734.389 324.773 270.133 324.773 183.878 324.773 C 81.911 324.818 0.008 254.733 0.008 165.776 C 0.008 76.818 63.863 1.145 169.724 1.145 C 270.912 1.145 310.901 79.154 310.901 79.154 Z M 168.166 31.194 C 101.792 31.194 28.592 78.101 28.592 162.615 C 28.592 217.721 82.69 294.082 179.939 294.082 L 261.521 294.082 L 261.521 230.41 L 246.634 230.41 C 246.634 230.41 237.427 254.825 194.093 254.825 C 119.611 254.825 96.844 187.076 96.844 150.064 C 96.844 113.052 118.053 68.161 165.876 68.161 C 213.699 68.161 215.256 99.218 215.256 106.73 C 215.256 114.197 210.95 118.136 210.95 119.694 C 210.95 120.289 211.133 120.747 211.454 121.022 L 218.875 127.115 C 221.44 129.222 225.242 128.993 227.532 126.565 L 271.278 80.483 C 271.278 80.483 232.48 31.194 168.166 31.194 Z M 328.583 256.245 C 328.583 256.245 326.613 262.566 320.704 268.476 C 315.345 273.881 308.199 276.354 308.199 276.354 L 308.199 294.861 L 386.987 294.861 L 386.987 276.354 C 386.987 276.354 377.826 275.392 375.215 268.842 C 373.657 264.948 373.657 258.627 375.215 254.688 C 376.772 250.748 393.263 206.636 393.263 206.636 L 473.654 206.636 C 473.654 206.636 490.145 250.382 492.481 255.879 C 494.863 261.375 494.863 265.727 491.702 271.224 C 488.542 276.767 482.266 275.942 482.266 275.942 L 482.266 294.861 L 580.706 294.861 L 580.706 276.354 C 580.706 276.354 571.269 273.194 567.376 268.476 C 563.436 263.757 559.497 258.261 557.161 252.351 L 475.578 38.157 L 408.517 38.157 Z M 431.695 91.706 L 458.355 166.509 L 406.593 166.509 Z M 612.038 58.999 C 612.038 58.999 619.459 63.305 622.619 66.466 C 625.734 69.627 625.368 77.505 625.368 77.505 L 625.368 262.566 C 625.368 262.566 624.589 267.285 620.65 271.224 C 616.71 275.163 611.213 276.354 611.213 276.354 L 611.213 294.861 L 702.186 294.861 L 702.186 275.942 C 702.186 275.942 697.835 274.751 693.941 270.033 C 690.002 265.269 689.635 262.521 689.635 262.521 L 689.635 221.615 C 689.635 221.615 733.793 209.522 767.278 194.039 C 796.32 180.663 830.034 161.791 830.034 108.242 C 830.034 54.693 783.769 38.157 737.504 38.157 C 691.239 38.157 612.038 38.157 612.038 38.157 Z M 764.164 112.181 C 764.164 155.515 690.46 186.206 690.46 186.206 L 690.46 76.772 C 690.46 76.772 764.164 58.633 764.164 112.181 Z M 998.696 31.607 C 932.322 31.607 859.122 78.513 859.122 163.027 C 859.122 218.179 913.22 294.54 1010.469 294.54 L 1092.052 294.54 L 1092.052 230.868 L 1077.164 230.868 C 1077.164 230.868 1067.957 255.283 1024.623 255.283 C 950.141 255.283 927.375 187.534 927.375 150.522 C 927.375 113.51 948.583 68.619 996.406 68.619 C 1044.229 68.619 1045.786 99.676 1045.786 107.188 C 1045.786 114.655 1041.48 118.594 1041.48 120.152 C 1041.48 120.747 1041.664 121.205 1041.984 121.48 L 1049.405 127.573 C 1051.97 129.68 1055.772 129.451 1058.063 127.023 L 1101.808 80.941 C 1101.808 80.941 1062.964 31.652 998.696 31.607 Z M 1406.151 164.585 C 1406.151 88.957 1343.716 30.37 1260.576 30.37 C 1177.436 30.37 1115.001 89.003 1115.001 164.585 C 1115.001 240.167 1175.879 302.281 1260.576 302.281 C 1345.274 302.281 1406.151 240.213 1406.151 164.585 Z M 1260.622 71.276 C 1292.779 71.276 1336.708 94.912 1336.708 165.776 C 1336.708 236.64 1297.451 260.276 1260.622 260.276 C 1223.747 260.276 1185.315 241.358 1185.315 165.776 C 1185.315 90.148 1228.42 71.276 1260.622 71.276 Z M 1443.942 38.34 L 1443.942 56.663 C 1443.942 56.663 1455.028 59.503 1457.089 62.801 C 1459.059 65.916 1457.272 72.833 1457.272 72.833 L 1427.681 257.665 C 1427.681 257.665 1426.902 264.765 1422.184 270.262 C 1417.466 275.759 1411.007 276.767 1411.007 276.767 L 1411.007 294.861 L 1492.177 294.861 L 1492.177 277.958 C 1492.177 277.958 1484.344 277.958 1480.038 271.636 C 1476.924 267.056 1477.702 258.673 1477.702 258.673 L 1498.086 118.503 L 1538.488 237.418 L 1587.869 237.418 L 1628.637 110.624 C 1628.637 110.624 1650.991 253.909 1651.77 260.23 C 1652.594 266.506 1651.403 268.888 1648.655 272.827 C 1645.952 276.767 1637.707 277.958 1637.707 277.958 L 1637.707 294.998 L 1731.428 294.998 L 1731.428 279.149 C 1731.428 279.149 1723.962 275.576 1722.404 271.27 C 1720.847 266.918 1720.022 263.391 1719.244 257.07 C 1718.465 250.794 1693.363 79.933 1692.584 73.612 C 1691.805 67.336 1691.805 64.13 1695.332 59.824 C 1698.264 56.251 1704.769 53.502 1704.769 53.502 L 1704.769 38.157 L 1607.153 38.157 L 1571.103 142.918 L 1537.389 38.34 Z" id="path41" style="stroke-width: 0.458072; fill: rgb(255, 255, 255);"/>
  <path class="st0" d="M 1393.454 396.212 C 1393.87 396.998 1394.055 397.923 1394.055 398.941 L 1394.055 445.045 L 1393.963 445.045 C 1393.963 446.201 1393.778 447.172 1393.361 447.912 C 1392.945 448.652 1392.159 449.253 1391.049 449.716 C 1390.448 449.947 1389.338 450.132 1387.72 450.271 L 1387.673 450.271 C 1385.269 450.456 1382.864 450.456 1380.506 450.271 L 1380.459 450.271 C 1378.841 450.132 1377.731 449.947 1377.13 449.716 C 1376.02 449.253 1375.234 448.652 1374.818 447.912 C 1374.402 447.172 1374.217 446.201 1374.217 445.045 L 1374.217 398.941 C 1374.217 397.923 1374.402 396.998 1374.818 396.212 C 1375.234 395.426 1375.974 394.779 1377.176 394.27 C 1377.916 393.946 1378.98 393.669 1380.413 393.345 L 1380.459 393.345 C 1382.864 392.79 1385.361 392.79 1387.812 393.345 L 1387.858 393.345 C 1389.292 393.669 1390.356 393.993 1391.095 394.27 C 1392.252 394.779 1393.038 395.38 1393.454 396.212 Z M 544.887 409.947 L 552.101 428.444 L 537.534 428.444 L 544.887 409.947 Z M 375.266 412.767 L 375.266 412.952 C 375.266 418.085 371.381 421.415 364.954 421.415 L 356.399 421.415 L 356.399 404.212 L 364.861 404.212 C 371.381 404.212 375.266 407.218 375.266 412.767 Z M 1623.7 421.6 C 1623.7 461.046 1591.746 493 1552.3 493 L 206.2 493 C 166.754 493 134.8 461.046 134.8 421.6 C 134.8 382.154 166.754 350.2 206.2 350.2 L 1552.3 350.2 C 1591.746 350.2 1623.7 382.154 1623.7 421.6 Z M 393.301 411.935 C 393.301 397.553 382.711 389.091 366.295 389.091 L 338.364 389.091 L 338.364 454.109 L 356.399 454.109 L 356.399 435.519 L 365.324 435.519 C 381.509 435.519 393.301 427.427 393.301 412.12 L 393.301 411.935 Z M 478.296 438.294 L 446.804 438.294 L 446.804 389.091 L 428.816 389.091 L 428.816 454.063 L 478.296 454.063 L 478.296 438.294 Z M 581.373 454.109 L 553.673 388.628 L 536.285 388.628 L 508.678 454.109 L 527.638 454.109 L 532.262 442.502 L 557.326 442.502 L 562.043 454.109 L 581.373 454.109 Z M 666.877 389.091 L 646.715 389.091 L 633.258 412.767 L 619.894 389.091 L 599.362 389.091 L 624.056 429.785 L 624.056 454.109 L 642.183 454.109 L 642.183 429.508 L 666.877 389.091 Z M 805.654 433.854 C 805.654 421.692 796.359 416.837 781.422 413.6 C 772.404 411.519 770.185 410.224 770.185 407.264 L 770.185 407.079 C 770.185 404.767 772.358 402.918 776.705 402.918 C 782.486 402.918 788.96 405.183 794.925 409.345 L 803.943 396.628 C 796.914 390.94 788.266 387.981 777.214 387.981 C 761.63 387.981 752.057 396.721 752.057 408.79 L 752.057 408.975 C 752.057 422.34 762.74 426.27 776.566 429.415 C 785.399 431.496 787.526 432.976 787.526 435.658 L 787.526 435.843 C 787.526 438.617 784.89 440.282 780.081 440.282 C 772.543 440.282 765.422 437.554 758.994 432.467 L 748.959 444.444 C 756.959 451.612 767.919 455.219 779.387 455.219 C 795.156 455.219 805.654 447.311 805.654 434.039 L 805.654 433.854 Z M 901.1 389.091 L 880.938 389.091 L 867.481 412.767 L 854.117 389.091 L 833.585 389.091 L 858.279 429.785 L 858.279 454.109 L 876.406 454.109 L 876.406 429.508 L 901.1 389.091 Z M 983.09 433.854 C 983.09 421.692 973.795 416.837 958.858 413.6 C 949.841 411.519 947.621 410.224 947.621 407.264 L 947.621 407.079 C 947.621 404.767 949.794 402.918 954.141 402.918 C 959.922 402.918 966.396 405.183 972.361 409.345 L 981.379 396.628 C 974.35 390.94 965.702 387.981 954.65 387.981 C 939.066 387.981 929.493 396.721 929.493 408.79 L 929.493 408.975 C 929.493 422.34 940.176 426.27 954.002 429.415 C 962.835 431.496 964.962 432.976 964.962 435.658 L 964.962 435.843 C 964.962 438.617 962.326 440.282 957.517 440.282 C 949.979 440.282 942.858 437.554 936.43 432.467 L 926.395 444.444 C 934.395 451.612 945.355 455.219 956.823 455.219 C 972.592 455.219 983.09 447.311 983.09 434.039 L 983.09 433.854 Z M 1071.23 389.091 L 1014.211 389.091 L 1014.211 404.86 L 1033.68 404.86 L 1033.68 454.063 L 1051.715 454.063 L 1051.715 404.86 L 1071.23 404.86 L 1071.23 389.091 Z M 1159.74 438.756 L 1124.826 438.756 L 1124.826 428.444 L 1156.04 428.444 L 1156.04 414.247 L 1124.826 414.247 L 1124.826 404.397 L 1159.323 404.397 L 1159.323 389.091 L 1106.976 389.091 L 1106.976 454.063 L 1159.74 454.063 L 1159.74 438.756 Z M 1265.868 389.091 L 1246.816 389.091 L 1231.324 414.247 L 1215.833 389.091 L 1196.734 389.091 L 1196.734 454.063 L 1214.399 454.063 L 1214.399 416.929 L 1230.908 442.178 L 1231.278 442.178 L 1247.926 416.744 L 1247.926 454.109 L 1265.868 454.109 L 1265.868 389.091 Z M 1420.09 450.502 C 1419.258 450.456 1418.055 450.363 1416.437 450.225 C 1414.818 450.086 1413.708 449.901 1413.107 449.67 C 1411.997 449.207 1411.211 448.606 1410.795 447.866 C 1410.379 447.126 1410.194 446.155 1410.194 444.999 L 1410.194 398.894 C 1410.24 397.877 1410.425 396.998 1410.795 396.166 C 1411.211 395.38 1411.951 394.732 1413.154 394.224 C 1413.893 393.9 1414.957 393.623 1416.391 393.299 C 1417.824 392.975 1419.073 392.744 1420.09 392.651 L 1420.09 389.091 L 1347.95 389.091 L 1347.95 392.651 C 1348.968 392.79 1350.216 392.975 1351.65 393.299 C 1353.083 393.623 1354.147 393.946 1354.887 394.224 C 1356.043 394.732 1356.829 395.334 1357.245 396.166 C 1357.661 396.952 1357.846 397.877 1357.846 398.894 L 1357.846 444.999 C 1357.846 446.155 1357.661 447.126 1357.245 447.866 C 1356.829 448.606 1356.043 449.207 1354.933 449.67 C 1354.332 449.901 1353.222 450.086 1351.604 450.225 C 1349.985 450.363 1348.783 450.456 1347.95 450.502 L 1347.95 454.063 L 1420.09 454.063 L 1420.09 450.502 Z" style="fill: rgb(255, 255, 255);"/>
</svg>

<svg xmlns="http://www.w3.org/2000/svg" viewBox="0 0 1758.6 493"><path d="m310.9 79.15-83.14 88.18-54.88-37.79s18.05-17.31 1.56-29.91c-12.87-9.8-48.87 11.04-47.36 52 1.83 47.22 30.92 73.97 63.03 73.97 29.77 0 37.6-24.14 37.6-24.14h66.84v55.66l94-248.87h107.41l86.26 223.63s6.27 11.81 12.55 14.97c0 0 .37-146.72.37-150.84s-.55-8.66-3.12-11.59c-4.21-4.9-11.36-6.87-11.36-6.87V8.25h150.57c78.05 0 98.12 21.3 120.75 62.2C883.26 28.17 926.28.37 987.66.37c63.17 0 107.83 23.36 133.34 62.2C1156.64 19.83 1214 0 1266.48 0c64.5 0 118.37 31.33 146.27 79.93V8.25h145.07l15.3 38.98 11.36-38.98h149.79v67.7c-10.58 5.13-14.84 10.35-12.96 22.44l20.93 133.85c.87 4.35 2.38 8.89 6.14 12.23 4.35 3.9 10.21 3.16 10.21 3.16v77.19h-150.57V266.5h-86.3v58.45h-141.54v-37.98s-51.72 45.67-118.41 45.67c-85.3 0-142.33-62.98-142.33-62.98v55.1h-100.4c-89.33 0-166.01-49.1-187.45-138.56-10.17 9.7-54.92 41.82-108.6 53.91-4.18.92-6.28 2.52-6.28 7.1 0 8.3 17.68 11.22 17.68 11.22v66.33H183.88C81.9 324.82 0 254.73 0 165.77S63.86 1.16 169.72 1.16c101.2 0 141.18 78 141.18 78M168.17 31.2c-66.38 0-139.58 46.91-139.58 131.42 0 55.11 54.1 131.47 151.35 131.47h81.58v-63.67h-14.89s-9.2 24.41-52.54 24.41c-74.48 0-97.25-67.74-97.25-104.76 0-37 21.21-81.9 69.04-81.9 47.82 0 49.38 31.06 49.38 38.57 0 7.47-4.31 11.4-4.31 12.96q.01.91.5 1.33l7.43 6.1a6.37 6.37 0 0 0 8.65-.56l43.75-46.08S232.48 31.2 168.17 31.2m160.41 225.05s-1.97 6.33-7.88 12.24c-5.35 5.4-12.5 7.87-12.5 7.87v18.51h78.79v-18.5s-9.16-.97-11.78-7.52c-1.55-3.9-1.55-10.21 0-14.15 1.56-3.94 18.05-48.05 18.05-48.05h80.4s16.48 43.74 18.82 49.24c2.38 5.5 2.38 9.85-.78 15.34-3.16 5.55-9.43 4.72-9.43 4.72v18.92h98.44v-18.5s-9.44-3.17-13.33-7.88c-3.94-4.72-7.88-10.22-10.22-16.13l-81.58-214.2h-67.06ZM431.7 91.72l26.66 74.8h-51.77ZM612.04 59s7.42 4.3 10.58 7.47c3.11 3.16 2.75 11.03 2.75 11.03v185.07s-.78 4.72-4.72 8.65-9.44 5.13-9.44 5.13v18.51h90.98v-18.92s-4.36-1.19-8.25-5.9c-3.94-4.77-4.3-7.52-4.3-7.52v-40.9s44.15-12.1 77.64-27.58c29.04-13.38 62.75-32.25 62.75-85.8s-46.26-70.08-92.53-70.08H612.04Zm152.12 53.18c0 43.33-73.7 74.03-73.7 74.03V76.77s73.7-18.14 73.7 35.41M998.7 31.61c-66.38 0-139.58 46.9-139.58 131.42 0 55.15 54.1 131.51 151.35 131.51h81.58v-63.67h-14.89s-9.2 24.41-52.54 24.41c-74.48 0-97.24-67.75-97.24-104.76s21.2-81.9 69.03-81.9 49.38 31.06 49.38 38.57c0 7.47-4.31 11.4-4.31 12.96q.01.9.5 1.33l7.42 6.1a6.37 6.37 0 0 0 8.66-.56l43.75-46.08s-38.85-49.29-103.11-49.33m407.45 132.98c0-75.63-62.43-134.22-145.57-134.22S1115 89 1115 164.59c0 75.58 60.88 137.7 145.58 137.7s145.57-62.08 145.57-137.7m-145.53-93.31c32.16 0 76.09 23.63 76.09 94.5 0 70.86-39.26 94.5-76.09 94.5-36.87 0-75.3-18.92-75.3-94.5 0-75.63 43.1-94.5 75.3-94.5m183.32-32.94v18.32s11.09 2.84 13.15 6.14c1.97 3.12.18 10.03.18 10.03l-29.59 184.84s-.78 7.1-5.5 12.6-11.17 6.5-11.17 6.5v18.1h81.17v-16.91s-7.84 0-12.14-6.32c-3.12-4.58-2.34-12.97-2.34-12.97l20.39-140.17 40.4 118.92h49.38l40.77-126.8s22.35 143.29 23.13 149.61c.82 6.28-.37 8.66-3.12 12.6-2.7 3.94-10.94 5.13-10.94 5.13V295h93.72v-15.85s-7.47-3.57-9.03-7.88c-1.55-4.35-2.38-7.88-3.16-14.2-.78-6.28-25.88-177.14-26.66-183.46-.77-6.27-.77-9.48 2.75-13.79 2.93-3.57 9.44-6.32 9.44-6.32V38.16h-97.62l-36.05 104.76-33.71-104.58Z" class="st3" style="stroke-width:.458072;fill:#fff"/><path d="M1393.45 396.21q.62 1.2.6 2.73v46.1h-.09q.02 1.75-.6 2.87a4.5 4.5 0 0 1-2.31 1.8q-.9.36-3.33.56h-.05q-3.61.29-7.16 0h-.05a14 14 0 0 1-3.33-.55 4.5 4.5 0 0 1-2.31-1.8 6 6 0 0 1-.6-2.87v-46.1q-.01-1.55.6-2.74a4.5 4.5 0 0 1 2.36-1.94q1.1-.46 3.23-.92h.05c2.4-.56 4.9-.56 7.35 0h.05q2.14.49 3.24.92c1.15.5 1.94 1.11 2.35 1.94M544.9 409.95l7.21 18.5h-14.57zm-169.62 2.82v.18c0 5.13-3.89 8.47-10.32 8.47h-8.55v-17.2h8.46c6.52 0 10.4 3 10.4 8.55m1248.43 8.83a71.4 71.4 0 0 1-71.4 71.4H206.2a71.4 71.4 0 0 1-71.4-71.4 71.4 71.4 0 0 1 71.4-71.4h1346.1a71.4 71.4 0 0 1 71.4 71.4m-1230.4-9.67c0-14.38-10.59-22.84-27-22.84h-27.94v65.02h18.04v-18.6h8.92c16.19 0 27.98-8.08 27.98-23.39zm85 26.36h-31.5v-49.2h-17.98v64.97h49.48zm103.07 15.82-27.7-65.48H536.3l-27.61 65.48h18.96l4.62-11.6h25.07l4.71 11.6zm85.5-65.02h-20.15l-13.46 23.68-13.37-23.68h-20.53l24.7 40.7v24.32h18.12v-24.6zm138.78 44.76c0-12.16-9.3-17.01-24.23-20.25-9.02-2.08-11.24-3.38-11.24-6.34v-.18c0-2.31 2.18-4.16 6.53-4.16 5.78 0 12.25 2.26 18.21 6.43l9.02-12.72c-7.03-5.69-15.67-8.65-26.73-8.65-15.58 0-25.15 8.74-25.15 20.81v.19c0 13.36 10.68 17.29 24.5 20.44 8.84 2.08 10.97 3.56 10.97 6.24v.18c0 2.78-2.64 4.44-7.45 4.44-7.54 0-14.66-2.73-21.09-7.81l-10.03 11.97c8 7.17 18.96 10.78 30.43 10.78 15.77 0 26.26-7.9 26.26-21.18zm95.45-44.76h-20.16l-13.46 23.68-13.36-23.68h-20.53l24.69 40.7v24.32h18.13v-24.6zm81.99 44.76c0-12.16-9.3-17.01-24.23-20.25-9.02-2.08-11.24-3.38-11.24-6.34v-.18c0-2.31 2.17-4.16 6.52-4.16 5.78 0 12.26 2.26 18.22 6.43l9.02-12.72c-7.03-5.69-15.68-8.65-26.73-8.65-15.58 0-25.16 8.74-25.16 20.81v.19c0 13.36 10.69 17.29 24.51 20.44 8.84 2.08 10.96 3.56 10.96 6.24v.18c0 2.78-2.63 4.44-7.44 4.44-7.54 0-14.66-2.73-21.09-7.81l-10.03 11.97c8 7.17 18.96 10.78 30.42 10.78 15.77 0 26.27-7.9 26.27-21.18zm88.14-44.76h-57.02v15.77h19.47v49.2h18.03v-49.2h19.52zm88.51 49.67h-34.91v-10.32h31.21v-14.2h-31.21v-9.84h34.5v-15.3h-52.35v64.96h52.76zm106.13-49.67h-19.05l-15.5 25.16-15.49-25.16h-19.1v64.97h17.67v-37.13l16.5 25.25h.38l16.65-25.44v37.37h17.94zm154.22 61.41q-1.23-.07-3.65-.27a14 14 0 0 1-3.33-.56 4.5 4.5 0 0 1-2.31-1.8 6 6 0 0 1-.6-2.87v-46.1c.04-1.02.22-1.9.6-2.73a4.4 4.4 0 0 1 2.35-1.95q1.1-.46 3.24-.92 2.16-.5 3.7-.65v-3.56h-72.14v3.56q1.54.19 3.7.65 2.14.5 3.24.92c1.15.51 1.94 1.11 2.35 1.95q.62 1.18.6 2.72V445q.01 1.75-.6 2.88a4.5 4.5 0 0 1-2.3 1.8q-.9.35-3.34.56-2.42.2-3.65.27v3.56h72.14z" class="st0" style="fill:#fff"/></svg>
